X: 3328
T: Skomagerdansen
B:[[Notböcker/Melodier til gamle danske Almuedanse for Violin solo]]
O:Danmark
Z:Søren Bak Vestergaard
M: 2/4
L: 1/8
K: D
f2 (fd)|e3 d|cABc|dfag|f2 (fd)|e3 d|cABc|d2 z2:|\
|:!downbow!faaa|afdf|faaa|afdf|g2 g2|e3 d|cABc|d2 z2:|
(:musicend:)
(:music:)
